X: 4545
T: Boscastle Breakdown, The
R: hornpipe
M: 4/4
K: Gmajor
|:G3B dGBd|cdef g3e|dGGd edcB|cAAG AcBA|
G3B dGBd|cdef g3e|dgfe dcBA|1 GBdB G4:|2 GBdB G2 Bd||
|:gdBd gdBd|gece gecg|gdBd gdBd|cAAB cdef|
gdBd gdBd|gece gece|dgfe dcBA|1 GBdB G2 Bd:|2 GBdB G4||
|:BddB dBGB|ceec ecAc|BddB dBGB|cAAB cedc|
BddB dBGB|ceec ecAc|dgfe dcBA|GBdB G4:|
|:BD D2 BDGB|cE E2 Ecdc|BD D2 BDGB|ADBD cDAD|
BD D2 BDGB|cE E2 Ecdc|dgfe dcBA|GBdB G2 G2:|

